static/img/kroki/61a096b0046a9266720e414c1a2cd5f3.svg

<?xml version="1.0" encoding="us-ascii" standalone="no"?><svg xmlns="http://www.w3.org/2000/svg" xmlns:xlink="http://www.w3.org/1999/xlink" contentStyleType="text/css" height="152px" preserveAspectRatio="none" style="width:327px;height:152px;" version="1.1" viewBox="0 0 327 152" width="327px" zoomAndPan="magnify"><defs/><g><!--class kubernetes_cluster--><g id="elem_kubernetes_cluster"><rect codeLine="22" fill="#3D176E" height="39.7891" id="kubernetes_cluster" rx="2.5" ry="2.5" style="stroke:#000D19;stroke-width:0.5;" width="201" x="63" y="7"/><ellipse cx="78" cy="26.8945" fill="#ADD1B2" rx="11" ry="11" style="stroke:#181818;stroke-width:1.0;"/><path d="M80.9688,32.5352 Q80.3906,32.832 79.75,32.9727 Q79.1094,33.1289 78.4063,33.1289 Q75.9063,33.1289 74.5781,31.4883 Q73.2656,29.832 73.2656,26.707 Q73.2656,23.582 74.5781,21.9258 Q75.9063,20.2695 78.4063,20.2695 Q79.1094,20.2695 79.75,20.4258 Q80.4063,20.582 80.9688,20.8789 L80.9688,23.5977 Q80.3438,23.0195 79.75,22.7539 Q79.1563,22.4727 78.5313,22.4727 Q77.1875,22.4727 76.5,23.5508 Q75.8125,24.6133 75.8125,26.707 Q75.8125,28.8008 76.5,29.8789 Q77.1875,30.9414 78.5313,30.9414 Q79.1563,30.9414 79.75,30.6758 Q80.3438,30.3945 80.9688,29.8164 L80.9688,32.5352 Z " fill="#000000"/><text fill="#D9B8FF" font-family="Helvetica" font-size="17" lengthAdjust="spacing" textLength="159" x="97" y="32.7798">kubernetes_cluster</text></g><!--class kubernetes_cluster_role_binding--><g id="elem_kubernetes_cluster_role_binding"><rect codeLine="24" fill="#3D176E" height="39.7891" id="kubernetes_cluster_role_binding" rx="2.5" ry="2.5" style="stroke:#000D19;stroke-width:0.5;" width="313" x="7" y="106.79"/><ellipse cx="22" cy="126.6845" fill="#ADD1B2" rx="11" ry="11" style="stroke:#181818;stroke-width:1.0;"/><path d="M24.9688,132.3252 Q24.3906,132.622 23.75,132.7627 Q23.1094,132.9189 22.4063,132.9189 Q19.9063,132.9189 18.5781,131.2783 Q17.2656,129.622 17.2656,126.497 Q17.2656,123.372 18.5781,121.7158 Q19.9063,120.0595 22.4063,120.0595 Q23.1094,120.0595 23.75,120.2158 Q24.4063,120.372 24.9688,120.6689 L24.9688,123.3877 Q24.3438,122.8095 23.75,122.5439 Q23.1563,122.2627 22.5313,122.2627 Q21.1875,122.2627 20.5,123.3408 Q19.8125,124.4033 19.8125,126.497 Q19.8125,128.5908 20.5,129.6689 Q21.1875,130.7314 22.5313,130.7314 Q23.1563,130.7314 23.75,130.4658 Q24.3438,130.1845 24.9688,129.6064 L24.9688,132.3252 Z " fill="#000000"/><text fill="#D9B8FF" font-family="Helvetica" font-size="17" lengthAdjust="spacing" textLength="271" x="41" y="132.5698">kubernetes_cluster_role_binding</text></g><!--link kubernetes_cluster to kubernetes_cluster_role_binding--><g id="link_kubernetes_cluster_kubernetes_cluster_role_binding"><path codeLine="26" d="M163.5,47.22 C163.5,64.36 163.5,83.27 163.5,100.41 " fill="none" id="kubernetes_cluster-to-kubernetes_cluster_role_binding" style="stroke:#1A83AF;stroke-width:2.0;"/><polygon fill="#1A83AF" points="163.5,106.41,167.5,97.41,163.5,101.41,159.5,97.41,163.5,106.41" style="stroke:#1A83AF;stroke-width:2.0;"/></g><!--SRC=[XP9HQuCm58NV-oi2FXTqigal0okKxQMCTMzZI3GtDHWJkOahtTX_NsstaMcjh_TyEVUSIoh1W43JsWDfe2a0pSBKGhKKQKDIHBtFjDH8FCuf3wEXkDRApW8RsW1v0FaELfHqIBnKegmL64Dk76b5otg7kbFiR6-HAdEKG5c7oYGr9hKMHT5PSCAmf8Wv7v93KozaGNG78qmZ0_n1VDzdGJ94PbTTxVr7RCK7aC0zsaPR6CKShJXHLrFsX1DoLFHNdypuH1aJQaTkdTdpEHCgm7_pRKMPtlSqfzAuQum516qFBMIZLf34Z4SNuSSfkEmlH-hk-54LM31vARl-6VbSV4sAEMe9UI7KgL1FNZ1Oldf16eVf-crvF-Vn3G00]--></g></svg>

<svg xmlns="http://www.w3.org/2000/svg" width="327" height="152" viewBox="0 0 327 152"><rect width="201" height="39.789" x="63" y="7" fill="#3D176E" rx="2.5" ry="2.5" style="stroke:#000d19;stroke-width:.5"/><circle cx="78" cy="26.895" r="11" fill="#ADD1B2" style="stroke:#181818;stroke-width:1"/><path d="M80.969 32.535q-.578.297-1.219.438-.64.156-1.344.156-2.5 0-3.828-1.64-1.312-1.657-1.312-4.782t1.312-4.781q1.328-1.656 3.828-1.656.703 0 1.344.156.656.156 1.219.453v2.719q-.625-.578-1.219-.844-.594-.281-1.219-.281-1.344 0-2.031 1.078-.687 1.062-.687 3.156t.687 3.172q.688 1.062 2.031 1.062.625 0 1.219-.265.594-.281 1.219-.86z"/><text x="97" y="32.78" fill="#D9B8FF" font-family="Helvetica" font-size="17" textLength="159">kubernetes_cluster</text><rect width="313" height="39.789" x="7" y="106.79" fill="#3D176E" rx="2.5" ry="2.5" style="stroke:#000d19;stroke-width:.5"/><circle cx="22" cy="126.684" r="11" fill="#ADD1B2" style="stroke:#181818;stroke-width:1"/><path d="M24.969 132.325q-.578.297-1.219.438-.64.156-1.344.156-2.5 0-3.828-1.64-1.312-1.657-1.312-4.782t1.312-4.781q1.328-1.656 3.828-1.656.703 0 1.344.156.656.156 1.219.453v2.719q-.625-.579-1.219-.844-.594-.281-1.219-.281-1.343 0-2.031 1.078-.687 1.062-.687 3.156t.687 3.172q.688 1.062 2.031 1.062.625 0 1.219-.265.594-.281 1.219-.86z"/><text x="41" y="132.57" fill="#D9B8FF" font-family="Helvetica" font-size="17" textLength="271">kubernetes_cluster_role_binding</text><path fill="none" d="M163.5 47.22v53.19" style="stroke:#1a83af;stroke-width:2"/><path fill="#1A83AF" d="m163.5 106.41 4-9-4 4-4-4z" style="stroke:#1a83af;stroke-width:2"/></svg>
